world_stage/static/flags/rect/ner.svg

<svg height="800" viewBox="0 0 1203.3333 800" width="1203.3333" xmlns="http://www.w3.org/2000/svg" xmlns:xlink="http://www.w3.org/1999/xlink"><clipPath id="a"><path d="m0 600h902.5v-600h-902.5z" transform="translate(-451.50001 -385.00001)"/></clipPath><g transform="matrix(1.3333333 0 0 -1.3333333 0 800)"><path d="m0 0h902.5v600h-902.5z" fill="#0db02b"/><path d="m0 200h902.5v400h-902.5z" fill="#fff"/><path d="m0 400h902.5v200.001h-902.5z" fill="#e05206"/></g><path clip-path="url(#a)" d="m0 0c46.944 0 85-38.056 85-85s-38.056-85-85-85-85 38.056-85 85 38.056 85 85 85" fill="#e05206" transform="matrix(1.3333333 0 0 -1.3333333 602 286.66667)"/></svg>

<?xml version="1.0" encoding="UTF-8" standalone="no"?>
<!-- Created with Inkscape (http://www.inkscape.org/) -->

<svg
   version="1.1"
   id="svg1"
   width="1203.3333"
   height="800"
   viewBox="0 0 1203.3333 800"
   sodipodi:docname="ne.ai"
   xmlns:inkscape="http://www.inkscape.org/namespaces/inkscape"
   xmlns:sodipodi="http://sodipodi.sourceforge.net/DTD/sodipodi-0.dtd"
   xmlns="http://www.w3.org/2000/svg"
   xmlns:svg="http://www.w3.org/2000/svg">
  <defs
     id="defs1">
    <clipPath
       clipPathUnits="userSpaceOnUse"
       id="clipPath5">
      <path
         d="M 0,600 H 902.5 V 0 H 0 Z"
         transform="translate(-451.50001,-385.00001)"
         id="path5" />
    </clipPath>
  </defs>
  <sodipodi:namedview
     id="namedview1"
     pagecolor="#ffffff"
     bordercolor="#000000"
     borderopacity="0.25"
     inkscape:showpageshadow="2"
     inkscape:pageopacity="0.0"
     inkscape:pagecheckerboard="0"
     inkscape:deskcolor="#d1d1d1">
    <inkscape:page
       x="0"
       y="0"
       inkscape:label="1"
       id="page1"
       width="1203.3333"
       height="800"
       margin="0"
       bleed="0" />
  </sodipodi:namedview>
  <g
     id="layer-MC0"
     inkscape:groupmode="layer"
     inkscape:label="Layer 1">
    <path
       id="path1"
       d="M 0,0 H 902.5 V 600 H 0 Z"
       style="fill:#0db02b;fill-opacity:1;fill-rule:nonzero;stroke:none"
       transform="matrix(1.3333333,0,0,-1.3333333,0,800)" />
    <path
       id="path2"
       d="M 0,200 H 902.5 V 600 H 0 Z"
       style="fill:#ffffff;fill-opacity:1;fill-rule:nonzero;stroke:none"
       transform="matrix(1.3333333,0,0,-1.3333333,0,800)" />
    <path
       id="path3"
       d="M 0,400 H 902.5 V 600.001 H 0 Z"
       style="fill:#e05206;fill-opacity:1;fill-rule:nonzero;stroke:none"
       transform="matrix(1.3333333,0,0,-1.3333333,0,800)" />
    <path
       id="path4"
       d="m 0,0 c 46.944,0 85,-38.056 85,-85 0,-46.944 -38.056,-85 -85,-85 -46.944,0 -85,38.056 -85,85 0,46.944 38.056,85 85,85"
       style="fill:#e05206;fill-opacity:1;fill-rule:nonzero;stroke:none"
       transform="matrix(1.3333333,0,0,-1.3333333,602,286.66667)"
       clip-path="url(#clipPath5)" />
  </g>
</svg>
